X:1
T:Cooley's
Z:Jeremy
S:https://thesession.org/tunes/1#setting1
R:reel
%: Fjordvalsen
%: Fjordvalsen
%%staffsep 2cm
%%tabrhstyle modern
M:4/4
L:1/8
K: E clef=treble-8
|:^D2|Fcc^A c2 Fc|c2 ^Ac ^dc^A^G|^F^D^A^D c^D^A^D|^F^D^A^D ^d^A^F^D|
Fcc^A c2 Fc|c2 ^Ac ^df^f^g|^a^ff^c ^dc^A^F|^DF^F^D F2:|
|:^g^f|fc c2 f^f^gf|fc c2 ^gf^dc|^A2 ^F^A ^D^A^F^A|^A2 ^F^A ^df^f^g|
fc c2 fc^gc|fc c2 ^df^f^g|^a^ff^c ^dc^A^F|^DF^F^D ^c'2:|
